icons/svg/shopping/outdoor.svg

<?xml version="1.0" encoding="UTF-8" standalone="no"?>
<!-- Created with Inkscape (http://www.inkscape.org/) -->

<svg
   xmlns:dc="http://purl.org/dc/elements/1.1/"
   xmlns:cc="http://creativecommons.org/ns#"
   xmlns:rdf="http://www.w3.org/1999/02/22-rdf-syntax-ns#"
   xmlns:svg="http://www.w3.org/2000/svg"
   xmlns="http://www.w3.org/2000/svg"
   xmlns:sodipodi="http://sodipodi.sourceforge.net/DTD/sodipodi-0.dtd"
   xmlns:inkscape="http://www.inkscape.org/namespaces/inkscape"
   version="1.0"
   width="580"
   height="580"
   id="svg2"
   sodipodi:version="0.32"
   inkscape:version="0.48.4 r9939"
   sodipodi:docname="car_parts.svg"
   inkscape:output_extension="org.inkscape.output.svg.inkscape">
  <metadata
     id="metadata10">
    <rdf:RDF>
      <cc:Work
         rdf:about="">
        <dc:format>image/svg+xml</dc:format>
        <dc:type
           rdf:resource="http://purl.org/dc/dcmitype/StillImage" />
        <cc:license
           rdf:resource="http://web.resource.org/cc/PublicDomain" />
        <dc:language>en</dc:language>
        <dc:title></dc:title>
      </cc:Work>
    </rdf:RDF>
  </metadata>
  <sodipodi:namedview
     inkscape:window-height="1004"
     inkscape:window-width="1920"
     inkscape:pageshadow="2"
     inkscape:pageopacity="0.0"
     guidetolerance="10.0"
     gridtolerance="10.0"
     objecttolerance="10.0"
     borderopacity="1.0"
     bordercolor="#666666"
     pagecolor="#ffffff"
     id="base"
     showgrid="false"
     inkscape:zoom="0.125"
     inkscape:cx="273.19367"
     inkscape:cy="-104.02855"
     inkscape:window-x="1680"
     inkscape:window-y="0"
     inkscape:current-layer="svg2"
     inkscape:window-maximized="1" />
  <defs
     id="defs4">
    <clipPath
       id="clipoutline2"
       clipPathUnits="userSpaceOnUse">
      <path
         d="M 55.8,12 L 56.56,12.16 C 65.4,9.22 85.24,20.8 80.82,31.12 C 79.7,32.74 79.89,35.62 81.24,37.43 L 56.43,62.25 C 55.04,60.86 51.95,60.89 50.53,62.25 L 9.5,101.63 C 5.76,105.22 8.7,108.27 10.28,109.88 L 17.64,117.24 C 19.25,118.84 23.5,121 26.52,117.8 L 65.24,76.99 C 66.59,75.57 66.6,72.52 65.24,71.12 C 65.24,71.12 65.25,71.1 65.24,71.1 L 90.15,46.2 C 92.78,48.57 95.263827,48.774854 97.62,48.13 C 102.17057,46.884568 104.70725,51.336643 107.43,54.59 L 106.2,55.8 C 104.38,57.64 104.55,60.74 106.59,62.78 C 108.63,64.82 111.74,64.99 113.56,63.17 L 121.7,55.04 C 123.52,53.2 123.35,50.1 121.3,48.07 C 119.46,46.22 116.79,45.98 114.93,47.3 C 109.35,41.04 112.28,40.1 104.92,31.95 L 91.13,17.86 C 81.2,8.12 68.3,8.13 55.8,12 z"
         id="outline2" />
    </clipPath>
    <clipPath
       id="clipoutline1"
       clipPathUnits="userSpaceOnUse">
      <path
         d="M 22.42,17.2 L 35.38,30.15 L 32.88,38.93 L 24.1,41.43 L 11.14,28.47 L 5.28,34.33 L 20.17,55.79 L 37.73,52.45 L 99.36,118.07 C 108.8,127.58 121.53,113.32 112.7,105.2 L 46.85,42.92 L 50.86,25.16 L 28.72,10.89 L 22.42,17.2 z M 103.48,109.17 C 105.16,107.49 107.88,107.49 109.56,109.17 C 111.24,110.85 111.24,113.57 109.56,115.25 C 107.88,116.92 105.16,116.92 103.48,115.25 C 101.8,113.57 101.8,110.85 103.48,109.17 z"
         id="outline1" />
    </clipPath>
    <inkscape:perspective
       sodipodi:type="inkscape:persp3d"
       inkscape:vp_x="0 : 290 : 1"
       inkscape:vp_y="0 : 1000 : 0"
       inkscape:vp_z="580 : 290 : 1"
       inkscape:persp3d-origin="290 : 193.33333 : 1"
       id="perspective12" />
    <style
       type="text/css"
       id="style6">
   
    .fil0 {fill:#EF7900}
   
  </style>
    <inkscape:perspective
       id="perspective6807"
       inkscape:persp3d-origin="29.116032 : 19.410688 : 1"
       inkscape:vp_z="58.232063 : 29.116032 : 1"
       inkscape:vp_y="0 : 1000 : 0"
       inkscape:vp_x="0 : 29.116032 : 1"
       sodipodi:type="inkscape:persp3d" />
    <inkscape:perspective
       id="perspective6954"
       inkscape:persp3d-origin="290 : 193.33333 : 1"
       inkscape:vp_z="580 : 290 : 1"
       inkscape:vp_y="0 : 1000 : 0"
       inkscape:vp_x="0 : 290 : 1"
       sodipodi:type="inkscape:persp3d" />
    <marker
       viewBox="0 0 10 10"
       refY="5"
       refX="10"
       orient="auto"
       markerWidth="4"
       markerUnits="strokeWidth"
       markerHeight="3"
       id="ArrowStart">
      <path
         id="path2295"
         d="M 10 0 L 0 5 L 10 10 z" />
    </marker>
    <marker
       viewBox="0 0 10 10"
       refY="5"
       refX="0"
       orient="auto"
       markerWidth="4"
       markerUnits="strokeWidth"
       markerHeight="3"
       id="ArrowEnd">
      <path
         id="path2292"
         d="M 0 0 L 10 5 L 0 10 z" />
    </marker>
    <inkscape:perspective
       id="perspective7597"
       inkscape:persp3d-origin="178.5405 : 158.483 : 1"
       inkscape:vp_z="357.08099 : 237.7245 : 1"
       inkscape:vp_y="0 : 1000 : 0"
       inkscape:vp_x="0 : 237.7245 : 1"
       sodipodi:type="inkscape:persp3d" />
  </defs>
  <g
     id="g1327">
    <path
       d="M 66.275,1.768 C 24.94,1.768 1.704,23.139 1.704,66.804 L 1.704,516.927 C 1.704,557.771 22.598,579.156 63.896,579.156 L 515.92,579.156 C 557.227,579.156 578.149,558.84 578.149,516.927 L 578.149,66.804 C 578.149,24.203 557.227,1.768 514.627,1.768 C 514.624,1.768 66.133,1.625 66.275,1.768 z"
       style="fill:#111111;stroke:#eeeeee;stroke-width:3.40799999"
       id="path1329" />
  </g>
  <g
     id="g2319"
     transform="translate(879.29125,36.805119)">
    <path
       id="path2323"
       style="fill:#ffffff;stroke:none"
       d="" />
  </g>
  <g
     id="g2325"
     transform="translate(879.29125,36.805119)">
    <path
       id="path2329"
       style="fill:#ffffff;stroke:none"
       d="" />
  </g>
  <path
     style="fill:#ffffff;fill-opacity:1"
     inkscape:connector-curvature="0"
     d="m 476.23155,249.45389 c -65.08831,65.10779 -113.70472,83.76293 -162.36013,132.37936 -34.50324,34.52272 -20.77992,50.78018 -69.5133,99.51356 -48.03163,48.03162 -71.61859,40.31226 -71.61859,40.31226 0,0 -38.4019,-18.7721 -45.86785,-54.71785 0,0 21.54015,6.27687 65.45868,-37.66115 16.19898,-16.1405 46.16025,-20.25359 62.1643,-33.37263 20.13664,-16.49137 36.62801,-33.25565 40.60466,-37.2323 7.73886,-7.71936 55.75098,-34.40577 101.4629,-68.10978 12.57321,-9.25933 4.81486,-31.75466 19.59082,-46.55012 14.77596,-14.79545 47.29088,-8.53809 57.93424,-19.18146 94.36733,-94.36732 41.13098,-155.90784 41.13098,-155.90784 0,0 76.06307,65.51716 -38.98671,180.52795 z M 177.16453,414.17272 c 13.52838,-13.5089 42.45652,-19.43487 57.7783,-31.73518 14.44458,-11.52057 25.02946,-19.29842 42.65146,-36.92041 23.04114,-23.04115 59.63017,-42.70994 99.14319,-69.82519 11.1307,-7.66089 10.8383,-40.7801 22.24191,-49.864 11.87145,-9.49326 53.19736,-12.84612 64.81541,-24.46416 76.08256,-76.08256 35.28297,-139.31899 35.28297,-139.31899 0,0 -37.23231,-21.598638 -92.47648,33.62603 -3.95715,3.95715 -8.57707,7.68038 -13.74281,11.18918 l 5.78953,22.84622 c 1.28656,5.08776 -1.61795,10.31198 -6.51078,11.67651 -4.87334,1.30606 -9.90263,-1.69592 -11.1502,-6.80318 l -4.60043,-18.10932 c -4.7174,2.39768 -9.74668,4.65891 -14.93191,6.80318 l 5.47763,21.61812 c 1.28656,5.08778 -1.63744,10.273 -6.51078,11.61805 -4.87334,1.36453 -9.90262,-1.65694 -11.18919,-6.76419 l -5.08776,-19.9612 c -5.02928,1.71542 -10.15603,3.35285 -15.43873,4.89283 l 5.41915,21.32573 c 1.32555,5.08776 -1.61795,10.29249 -6.51078,11.65702 -4.87334,1.34505 -9.88313,-1.67642 -11.1502,-6.78368 l -5.41915,-21.38421 c -5.34118,1.36454 -10.76034,2.63161 -16.21847,3.8207 l 5.30219,20.83839 c 1.26707,5.08777 -1.59845,10.31199 -6.49129,11.65702 -4.89282,1.34505 -9.90262,-1.69592 -11.20867,-6.80317 l -5.5946,-21.96901 c -5.32168,1.01365 -10.58488,1.98832 -15.8481,2.84602 l 5.06828,19.94171 c 1.28656,5.10726 -1.61795,10.31198 -6.51078,11.65703 -4.87334,1.30605 -9.88313,-1.71542 -11.16969,-6.78369 l -5.5751,-21.93003 c -5.63358,0.83821 -11.11121,1.59846 -16.39391,2.30022 l 5.18523,20.46802 c 1.26707,5.08777 -1.61795,10.31199 -6.49128,11.63753 -4.89284,1.38403 -9.86364,-1.67642 -11.16969,-6.7642 l -5.84802,-23.09962 c -27.05677,2.98249 -46.70607,4.05462 -50.48778,4.07412 -42.32006,0.77973 -33.43109,54.24999 6.56926,54.17203 0,20.7994 -1.73491,47.1934 -18.34324,63.80174 -61.072674,61.07267 -93.802015,11.09171 -101.891756,37.32977 -9.317823,30.11723 -1.481495,40.13682 23.041144,67.62245 14.717481,16.49137 43.333722,62.00835 43.333722,62.00835 0,0 18.28476,16.43289 66.8622,-32.14454 z"
     id="path3" />
</svg>

<svg width="580" height="580" viewBox="0 0 580 580" fill="none" xmlns="http://www.w3.org/2000/svg">
<g clip-path="url(#clip0)">
<path d="M66.2751 1.76863C24.9401 1.76863 1.7041 23.1396 1.7041 66.8046V516.928C1.7041 557.772 22.5981 579.157 63.8961 579.157H515.92C557.227 579.157 578.149 558.841 578.149 516.928V66.8046C578.149 24.2036 557.227 1.76863 514.627 1.76863C514.624 1.76863 66.1331 1.62563 66.2751 1.76863Z" fill="#111111" stroke="#EEEEEE" stroke-width="3.408"/>
<path d="M476.232 249.454C411.143 314.562 362.527 333.217 313.871 381.834C279.368 416.357 293.091 432.614 244.358 481.347C196.326 529.379 172.74 521.66 172.74 521.66C172.74 521.66 134.338 502.888 126.872 466.942C126.872 466.942 148.412 473.219 192.33 429.281C208.529 413.14 238.491 409.027 254.495 395.908C274.631 379.417 291.123 362.652 295.099 358.676C302.838 350.956 350.85 324.27 396.562 290.566C409.135 281.307 401.377 258.811 416.153 244.016C430.929 229.22 463.444 235.478 474.087 224.834C568.455 130.467 515.218 68.9265 515.218 68.9265C515.218 68.9265 591.281 134.444 476.232 249.454V249.454ZM177.165 414.173C190.693 400.664 219.621 394.738 234.943 382.438C249.387 370.918 259.972 363.14 277.594 345.518C300.635 322.477 337.224 302.808 376.737 275.692C387.868 268.032 387.576 234.912 398.979 225.829C410.851 216.335 452.177 212.982 463.795 201.364C539.877 125.282 499.078 62.0454 499.078 62.0454C499.078 62.0454 461.845 40.4467 406.601 95.6714C402.644 99.6285 398.024 103.352 392.858 106.861L398.648 129.707C399.935 134.795 397.03 140.019 392.137 141.383C387.264 142.689 382.235 139.687 380.987 134.58L376.387 116.471C371.669 118.868 366.64 121.13 361.455 123.274L366.932 144.892C368.219 149.98 365.295 155.165 360.422 156.51C355.548 157.875 350.519 154.853 349.232 149.746L344.145 129.785C339.115 131.5 333.989 133.138 328.706 134.678L334.125 156.003C335.451 161.091 332.507 166.296 327.614 167.66C322.741 169.005 317.731 165.984 316.464 160.877L311.045 139.492C305.704 140.857 300.285 142.124 294.826 143.313L300.129 164.152C301.396 169.239 298.53 174.464 293.637 175.809C288.744 177.154 283.735 174.113 282.429 169.005L276.834 147.036C271.512 148.05 266.249 149.025 260.986 149.882L266.054 169.824C267.341 174.931 264.436 180.136 259.543 181.481C254.67 182.787 249.66 179.766 248.374 174.697L242.799 152.767C237.165 153.606 231.687 154.366 226.405 155.068L231.59 175.536C232.857 180.623 229.972 185.848 225.099 187.173C220.206 188.557 215.235 185.497 213.929 180.409L208.081 157.309C181.024 160.292 161.375 161.364 157.593 161.383C115.273 162.163 124.162 215.633 164.162 215.556C164.162 236.355 162.428 262.749 145.819 279.357C84.7465 340.43 52.0172 290.449 43.9274 316.687C34.6096 346.804 42.446 356.824 66.9686 384.309C81.6861 400.801 110.302 446.318 110.302 446.318C110.302 446.318 128.587 462.751 177.165 414.173V414.173Z" fill="white"/>
</g>
<defs>
<clipPath id="clip0">
<path d="M0 0H580V580H0V0Z" fill="white"/>
</clipPath>
</defs>
</svg>
